X:1
T:Quasi adagio
T:Allegretto
T:Béla Bartók Revised and Arranged by the Composer, January 1945 
T:Book 1 (after Hungarian Folksongs)
T:For Children Nr 22, Sz 42
C:Bela bartok
%%score { 1 | 2 }
L:1/8
Q:1/4=114
M:3/4
K:F
V:1 treble nm="Piano"
V:2 bass 
V:1
"^Allegretto,"!<(! .!4!c/!p!.!3!c/.!2!c/!<)!.!1!c/!>(! (!3!A!5!c!tenuto!!2!F)!>)!!tenuto!!1!F | %1
!<(! .!4!d/.!3!d/.!2!d/!<)!.!1!d/!>(! (!2!B!>)!d!<(!!tenuto!!3!c)!tenuto!!1!c | %2
 (!5!f/!<)!!>(!c/f/c/ !1!A!5!c!1!F!5!A)!>)! | %3
!>(! (!4!B/G/B/G/ !1!E!3!G!tenuto!!2!F)!tenuto!!1!F!>)! |!pp!!>(! (!5!f/c/f/c/ A!5!cFA)!>)! | %5
!>(! (B/G/B/G/ !1!E!3!G!tenuto!!2!F)!tenuto!!1!F!>)! | z6 | z6 | %8
!p! .!4!c/.!3!c/.!2!c/.!1!c/ (!3!Ac!tenuto!!2!F)!tenuto!!1!F | %9
"_poco cresc." .!4!d/.!3!d/.!2!d/.!1!d/ (!2!Bd!tenuto!c)!tenuto!!1!c | %10
!mf! (!5!f/c/f/c/"_dim." !1!A!5!cFA) | (B/G/B/G/ !1!E!3!G!2!F)!p!!fermata!!1!F | %12
[K:bass]!mf! (!3!A,!1!F,A,F,"_cresc."!2!A,!3!=B,) | (!2!=B,3 C) (!2!C2- | CF)!f! [A,F]4 |] %15
V:2
"_sempre legato il basso" !5!F,A,CB,A,F, | B,F,G,F,A,F, | A,F,CA,!1!DC | B,G,!1!CB,A,F, | %4
 A,F,CA,!1!DC | B,G,!1!C(B,A,F, |!<(! !2!A,!4!F,!ped!A,F,A,!1!=B,)!<)! | !2!=B,6!ped-up! | %8
"_sempre legato" !1
2
![A,C]!5!E,[A,C]!4!E,[A,C]!5!D, | %9
 !2![F,_B,]!ped!!5!D,!ped-up!!1
2
![DF]!5!B,!2!!1![EG]B, | %10
 !1
2
3
![CEF]!5!A,[C_EF]!5!G,!2!!1![A,C]!5!_E, | !2
4
![F,B,]!5!D, z2 z2 | z2 z2 !3
4
![C,D,]2- | %13
 !
![C,D,]2 !1

2

4

![C,E,G,]4 | z2 !2
5
![F,,C,]4 |] %15

